src/shared/assets/dialog/dialog-emoji.svg

<svg width="24" height="24" viewBox="0 0 24 24" fill="none" xmlns="http://www.w3.org/2000/svg">
<g clip-path="url(#clip0_90_23799)">
<path fill-rule="evenodd" clip-rule="evenodd" d="M1.35535 8.3503L2.20852 8.77505L3.12435 11.252C3.7684 12.9939 6.23207 12.9939 6.87612 11.252L7.79192 8.77505L9.76957 7.79055C11.2478 7.05465 11.2478 4.94563 9.76957 4.20972L7.79192 3.22522L7.26247 1.79324C8.70237 1.12376 10.3076 0.75 12.0001 0.75C13.6927 0.75 15.298 1.12379 16.738 1.79333L16.2085 3.22522L14.2309 4.20972C12.7526 4.94563 12.7526 7.05465 14.2309 7.79055L16.2085 8.77505L17.1244 11.252C17.7684 12.9939 20.2321 12.9939 20.8761 11.252L21.7919 8.77505L22.6449 8.3504C23.0372 9.49485 23.2501 10.7226 23.2501 12C23.2501 18.2132 18.2133 23.25 12.0001 23.25C5.78692 23.25 0.750122 18.2132 0.750122 12C0.750122 10.7225 0.963047 9.4948 1.35535 8.3503ZM6.48902 14.6018C6.87362 14.2625 7.44197 14.0964 8.00927 14.1981C9.07087 14.3884 10.4766 14.568 11.9999 14.568C13.5232 14.568 14.9289 14.3884 15.9905 14.1981C16.5578 14.0964 17.1262 14.2625 17.5108 14.6018C17.9024 14.9472 18.1053 15.4786 17.9019 16.0611C17.0503 18.4998 14.7298 20.2498 11.9999 20.2498C9.27002 20.2498 6.94952 18.4998 6.09787 16.0611C5.89447 15.4786 6.09742 14.9472 6.48902 14.6018Z" fill="black" fill-opacity="0.2"/>
<path d="M18.5306 1.26801C18.6917 0.832537 19.3076 0.832542 19.4686 1.26801L20.5906 4.30259L23.1005 5.55206C23.47 5.73601 23.47 6.26326 23.1005 6.44726L20.5906 7.69671L19.4686 10.7313C19.3076 11.1668 18.6917 11.1668 18.5306 10.7313L17.4086 7.69671L14.8987 6.44726C14.5292 6.26326 14.5292 5.73601 14.8987 5.55206L17.4086 4.30259L18.5306 1.26801Z" fill="black" fill-opacity="0.2"/>
<path d="M5.46907 1.26801C5.30807 0.832537 4.69215 0.832542 4.53114 1.26801L3.40912 4.30259L0.899248 5.55206C0.529678 5.73601 0.529678 6.26326 0.899248 6.44726L3.40912 7.69671L4.53114 10.7313C4.69215 11.1668 5.30807 11.1668 5.46907 10.7313L6.59112 7.69671L9.10097 6.44726C9.47052 6.26326 9.47052 5.73601 9.10097 5.55206L6.59112 4.30259L5.46907 1.26801Z" fill="black" fill-opacity="0.2"/>
</g>
<defs>
<clipPath id="clip0_90_23799">
<rect width="24" height="24" fill="white"/>
</clipPath>
</defs>
</svg>

<svg xmlns="http://www.w3.org/2000/svg" fill="none" viewBox="0 0 24 24"><g fill="#000" fill-opacity=".2" clip-path="url(#a)"><path fill-rule="evenodd" d="m1.355 8.35.854.425.915 2.477c.644 1.742 3.108 1.742 3.752 0l.916-2.477 1.978-.984c1.478-.736 1.478-2.845 0-3.581l-1.978-.985-.53-1.432A11.2 11.2 0 0 1 12 .75c1.693 0 3.298.374 4.738 1.043l-.53 1.432-1.977.985c-1.478.736-1.478 2.845 0 3.58l1.978.985.915 2.477c.644 1.742 3.108 1.742 3.752 0l.916-2.477.853-.425A11.3 11.3 0 0 1 23.25 12c0 6.213-5.037 11.25-11.25 11.25S.75 18.213.75 12c0-1.277.213-2.505.605-3.65m5.134 6.252a1.83 1.83 0 0 1 1.52-.404c1.062.19 2.468.37 3.99.37 1.524 0 2.93-.18 3.992-.37a1.83 1.83 0 0 1 1.52.404c.391.345.594.877.39 1.46a6.252 6.252 0 0 1-11.803 0c-.204-.583 0-1.115.391-1.46" clip-rule="evenodd"/><path d="M18.53 1.268a.5.5 0 0 1 .939 0l1.122 3.035 2.51 1.25a.5.5 0 0 1 0 .894l-2.51 1.25-1.122 3.034a.5.5 0 0 1-.938 0l-1.122-3.034-2.51-1.25a.5.5 0 0 1 0-.895l2.51-1.25zm-13.06 0a.5.5 0 0 0-.939 0L3.41 4.303.9 5.553a.5.5 0 0 0 0 .894l2.51 1.25 1.122 3.034a.5.5 0 0 0 .938 0l1.122-3.034 2.51-1.25a.5.5 0 0 0 0-.895l-2.51-1.25z"/></g><defs><clipPath id="a"><path fill="#fff" d="M0 0h24v24H0z"/></clipPath></defs></svg>
